src/topics/icons/nuclide.svg

<svg height="308" preserveAspectRatio="xMidYMid" viewBox="0 0 256 308" width="256" xmlns="http://www.w3.org/2000/svg"><path d="m235.733836 269.65287c-13.904096 13.905096-48.045333 4.005027-87.061603-22.239154l64.98945-64.570448c26.113181 38.90727 35.945249 72.936505 22.072153 86.809602zm-200.8103921-140.665976c-19.9941386-33.5292323-26.45018341-61.8874289-14.0970978-74.2405145 12.4090861-12.409086 40.9452839-5.8500406 74.6715177 14.3570996zm189.8793161 42.787297 18.76213-18.641129v-153.133062l-91.367633 90.7526291c-1.847013-1.5600108-3.696026-3.0870214-5.545039-4.5890317l18.762131-18.4921282-.016001-67.6714692-58.806407 58.135403c-41.928291-24.6131706-79.3675505-31.4052177-96.83067158-13.9420966-17.38512052 17.3841204-10.75407455 54.537378 13.58809418 96.2356676l-13.63709448 13.482093v153.142061l71.74249728-71.180493-.0970007-85.355591 53.8503733-53.0743685c1.851013 1.5240105 3.704026 3.0790215 5.558038 4.6640325l-52.1543609 51.804359-.0060001 153.180061 48.391336-48.078333c46.832324 30.785214 90.076624 40.837284 109.248757 21.665151 19.124133-19.124133 9.161063-62.205431-21.443149-108.903755z" fill="#7d4f8f"/><path d="m9.6703191 154.304416v153.533445l71.9258489-71.362409-.0972486-85.573733 84.2714056-83.0573025-.016041-67.8444165z" fill="#3f2a70"/><path d="m88.2563424 307.885667.0060156-153.576385 155.353985-154.309282v153.529264z" fill="#5a2a79"/><path d="m136.995104 258.883822c46.832967 30.784978 90.076936 40.836971 109.248922 21.664985 27.020981-27.020981-4.012997-101.863927-69.315951-167.166881-65.302953-65.3029536-140.1458995-96.3369315-167.16688021-69.3159507-17.3849876 17.3839875-10.75399233 54.536961 13.58799031 96.2349317l11.5749918-11.441992c-19.9949857-33.5289764-26.45098119-61.8869562-14.09799-74.2399473 20.5489853-20.5489854 85.3159391 10.9009923 144.6598971 70.2459503 59.344957 59.343958 90.794935 124.109911 70.24595 144.658897-13.90399 13.90499-48.044966 4.004997-87.060938-22.238984z" fill="#7d4f8f"/></svg>

<?xml version="1.0" encoding="UTF-8" standalone="no"?>
<svg width="256px" height="308px" viewBox="0 0 256 308" version="1.1" xmlns="http://www.w3.org/2000/svg" xmlns:xlink="http://www.w3.org/1999/xlink" preserveAspectRatio="xMidYMid">
	<g>
		<path d="M235.733836,269.65287 C221.82974,283.557966 187.688503,273.657897 148.672233,247.413716 L213.661683,182.843268 C239.774864,221.750538 249.606932,255.779773 235.733836,269.65287 L235.733836,269.65287 L235.733836,269.65287 Z M34.9234439,128.986894 C14.9293053,95.4576617 8.47326049,67.0994651 20.8263461,54.7463795 C33.2354322,42.3372935 61.77163,48.8963389 95.4978638,69.1034791 L34.9234439,128.986894 L34.9234439,128.986894 Z M224.80276,171.774191 L243.56489,153.133062 L243.56489,0 L152.197257,90.7526291 C150.350244,89.1926183 148.501231,87.6656077 146.652218,86.1635974 L165.414349,67.6714692 L165.398348,0 L106.591941,58.135403 C64.66365,33.5222324 27.2243905,26.7301853 9.76126942,44.1933064 C-7.6238511,61.5774268 -0.992805129,98.7306844 23.3493636,140.428974 L9.71226912,153.911067 L9.71226912,307.053128 L81.4547664,235.872635 L81.3577657,150.517044 L135.208139,97.4426755 C137.059152,98.966686 138.912165,100.521697 140.766177,102.106708 L88.6118161,153.911067 L88.605816,307.091128 L136.997152,259.012795 C183.829476,289.798009 227.073776,299.850079 246.245909,280.677946 C265.370042,261.553813 255.406972,218.472515 224.80276,171.774191 L224.80276,171.774191 L224.80276,171.774191 Z" fill="#7D4F8F"></path>
		<path d="M9.6703191,154.304416 L9.6703191,307.837861 L81.596168,236.475452 L81.4989194,150.901719 L165.770325,67.8444165 L165.754284,0 L9.6703191,154.304416" fill="#3F2A70"></path>
		<path d="M88.2563424,307.885667 L88.262358,154.309282 L243.616343,0 L243.616343,153.529264 L88.2563424,307.885667" fill="#5A2A79"></path>
		<path d="M136.995104,258.883822 C183.828071,289.6688 227.07204,299.720793 246.244026,280.548807 C273.265007,253.527826 242.231029,178.68488 176.928075,113.381926 C111.625122,48.0789724 36.7821755,17.0449945 9.76119479,44.0659753 C-7.62379281,61.4499628 -0.992797539,98.6029363 23.3491851,140.300907 L34.9241769,128.858915 C14.9291912,95.3299386 8.47319571,66.9719588 20.8261869,54.6189677 C41.3751722,34.0699823 106.142126,65.51996 165.486084,124.864918 C224.831041,184.208876 256.281019,248.974829 235.732034,269.523815 C221.828044,283.428805 187.687068,273.528812 148.671096,247.284831 L136.995104,258.883822" fill="#7D4F8F"></path>
	</g>
</svg>
